img/block-3-mobile.svg

<svg width="358" height="146" viewBox="0 0 358 146" fill="none" xmlns="http://www.w3.org/2000/svg">
<path d="M4.64194 119.077L4.54537 40.2465C4.53204 29.3673 13.2254 20.3778 24.1087 20.0166L333.741 9.74116C344.951 9.36917 354.175 18.273 354.189 29.4782L354.289 111.11C354.302 122.06 345.5 131.081 334.544 131.345L24.9085 138.819C13.7682 139.088 4.65558 130.211 4.64194 119.077Z" fill="#FF8D07"/>
<path d="M3.71063 116.778L3.60959 37.883C3.59566 27.0041 12.288 18.0152 23.1709 17.6542L332.82 7.38415C344.03 7.01236 353.255 15.917 353.27 27.1225L353.374 108.82C353.388 119.77 344.587 128.79 333.632 129.054L23.979 136.521C12.8384 136.79 3.72489 127.912 3.71063 116.778Z" stroke="black"/>
</svg>

<svg width="358" height="146" viewBox="0 0 358 146" fill="none" xmlns="http://www.w3.org/2000/svg"><path d="M4.642 119.077l-.097-78.83c-.013-10.88 8.68-19.87 19.564-20.23L333.74 9.74c11.21-.372 20.434 8.532 20.448 19.737l.1 81.632c.013 10.95-8.789 19.971-19.745 20.235l-309.635 7.474c-11.14.269-20.253-8.608-20.267-19.742z" fill="#FF8D07"/><path d="M3.71 116.778l-.1-78.895c-.014-10.879 8.678-19.868 19.56-20.229l309.65-10.27c11.21-.372 20.435 8.533 20.45 19.738l.104 81.698c.014 10.95-8.787 19.97-19.742 20.234l-309.653 7.467c-11.14.269-20.254-8.609-20.268-19.743z" stroke="#000"/></svg>
